Yaru++/status/24/transmission-tray-icon.svg

<svg height="24" width="24" xmlns="http://www.w3.org/2000/svg"><path d="m12.205172 1.5-5.2260743 6.8749999h-.9614249c-1.1426251 0-2.0624996.9198744-2.0624996 2.0625011 0 1.142625.9198745 2.062499 2.0624996 2.062499h3.4374999v2.75h-3.4374999l6.1874992 8.25 6.187501-8.25h-3.4375v-2.75h3.4375c1.142624 0 2.0625-.919874 2.0625-2.062499 0-1.1426267-.919876-2.0625011-2.0625-2.0625011h-.961427zm-6.1874992 8.25h2.7499997.6875002 1.3750003 2.75 1.375.6875 2.75c.380875 0 .687499.306624.687499.687501 0 .380874-.306624.687499-.687499.687499h-2.75-.6875-1.375-2.75-1.3750003-.6875002-2.7499997c-.380875 0-.6875003-.306625-.6875003-.687499 0-.380877.3066253-.687501.6875003-.687501z" fill="#fff" stroke-width="1.375"/></svg>

<?xml version="1.0" encoding="UTF-8" standalone="no"?>
<svg
   xmlns:dc="http://purl.org/dc/elements/1.1/"
   xmlns:cc="http://creativecommons.org/ns#"
   xmlns:rdf="http://www.w3.org/1999/02/22-rdf-syntax-ns#"
   xmlns:svg="http://www.w3.org/2000/svg"
   xmlns="http://www.w3.org/2000/svg"
   xmlns:sodipodi="http://sodipodi.sourceforge.net/DTD/sodipodi-0.dtd"
   xmlns:inkscape="http://www.inkscape.org/namespaces/inkscape"
   height="24"
   width="24"
   version="1.1"
   id="svg4"
   sodipodi:docname="dropboxstatus-busy2.svg"
   inkscape:version="0.92.4 (5da689c313, 2019-01-14)">
  <metadata
     id="metadata10">
    <rdf:RDF>
      <cc:Work
         rdf:about="">
        <dc:format>image/svg+xml</dc:format>
        <dc:type
           rdf:resource="http://purl.org/dc/dcmitype/StillImage" />
        <dc:title></dc:title>
      </cc:Work>
    </rdf:RDF>
  </metadata>
  <defs
     id="defs8" />
  <sodipodi:namedview
     pagecolor="#ffffff"
     bordercolor="#666666"
     borderopacity="1"
     objecttolerance="10"
     gridtolerance="10"
     guidetolerance="10"
     inkscape:pageopacity="0"
     inkscape:pageshadow="2"
     inkscape:window-width="1920"
     inkscape:window-height="1016"
     id="namedview6"
     showgrid="false"
     inkscape:zoom="29.283478"
     inkscape:cx="8.3847843"
     inkscape:cy="10.844578"
     inkscape:window-x="0"
     inkscape:window-y="27"
     inkscape:window-maximized="1"
     inkscape:current-layer="svg4" />
  <path
     inkscape:connector-curvature="0"
     d="M 12.205172,1.5 6.9790977,8.3749999 H 6.0176728 c -1.1426251,0 -2.0624996,0.9198744 -2.0624996,2.0625011 0,1.142625 0.9198745,2.062499 2.0624996,2.062499 h 3.4374999 v 2.75 H 6.0176728 l 6.1874992,8.25 6.187501,-8.25 h -3.4375 V 12.5 h 3.4375 c 1.142624,0 2.0625,-0.919874 2.0625,-2.062499 0,-1.1426267 -0.919876,-2.0625011 -2.0625,-2.0625011 H 17.431246 Z M 6.0176728,9.75 h 2.7499997 0.6875002 1.3750003 2.75 1.375 0.6875 2.75 c 0.380875,0 0.687499,0.306624 0.687499,0.687501 0,0.380874 -0.306624,0.687499 -0.687499,0.687499 h -2.75 -0.6875 -1.375 -2.75 H 9.4551727 8.7676725 6.0176728 c -0.380875,0 -0.6875003,-0.306625 -0.6875003,-0.687499 0,-0.380877 0.3066253,-0.687501 0.6875003,-0.687501 z"
     id="path4"
     style="fill:#ffffff;fill-opacity:1;stroke-width:1.375" />
</svg>
